ui/icon/svg/logo-windows.svg

<svg viewBox="0 0 512 512" xmlns="http://www.w3.org/2000/svg"><path d="m480 265h-248v179l248 36zm-264 0h-184v150l184 26.7zm264-233-248 35.4v181.6h248zm-264 37.7-184 26.3v153h184z"/></svg>

<svg xmlns="http://www.w3.org/2000/svg" class="ionicon" viewBox="0 0 512 512"><title>Logo Windows</title><path d="M480 265H232v179l248 36V265zM216 265H32v150l184 26.7V265zM480 32L232 67.4V249h248V32zM216 69.7L32 96v153h184V69.7z"/></svg>
